img/audio-x-playlist-recently-added-symbolic.svg

<?xml version="1.0" encoding="UTF-8" standalone="no"?>
<svg
   xmlns:dc="http://purl.org/dc/elements/1.1/"
   xmlns:cc="http://creativecommons.org/ns#"
   xmlns:rdf="http://www.w3.org/1999/02/22-rdf-syntax-ns#"
   xmlns:svg="http://www.w3.org/2000/svg"
   xmlns="http://www.w3.org/2000/svg"
   xmlns:sodipodi="http://sodipodi.sourceforge.net/DTD/sodipodi-0.dtd"
   xmlns:inkscape="http://www.inkscape.org/namespaces/inkscape"
   width="16"
   viewBox="0 0 16 16"
   height="16"
   id="svg2"
   version="1.1"
   inkscape:version="0.48.5 r10040"
   sodipodi:docname="recently-added.svg">
  <metadata
     id="metadata22">
    <rdf:RDF>
      <cc:Work
         rdf:about="">
        <dc:format>image/svg+xml</dc:format>
        <dc:type
           rdf:resource="http://purl.org/dc/dcmitype/StillImage" />
        <dc:title></dc:title>
      </cc:Work>
    </rdf:RDF>
  </metadata>
  <defs
     id="defs20" />
  <sodipodi:namedview
     pagecolor="#ffffff"
     bordercolor="#666666"
     borderopacity="1"
     objecttolerance="10"
     gridtolerance="10"
     guidetolerance="10"
     inkscape:pageopacity="0"
     inkscape:pageshadow="2"
     inkscape:window-width="1920"
     inkscape:window-height="1052"
     id="namedview18"
     showgrid="true"
     inkscape:zoom="44.704928"
     inkscape:cx="12.847053"
     inkscape:cy="8.0006788"
     inkscape:window-x="0"
     inkscape:window-y="28"
     inkscape:window-maximized="1"
     inkscape:current-layer="svg2">
    <inkscape:grid
       type="xygrid"
       id="grid2999" />
  </sodipodi:namedview>
  <rect
     y="10"
     x="12"
     height="6"
     width="2"
     id="rect3813"
     style="fill:#bebebe;fill-opacity:1;stroke:none" />
  <rect
     style="fill:#bebebe;fill-opacity:1;stroke:none"
     id="rect3815"
     width="2"
     height="6"
     x="12.000001"
     y="10"
     transform="matrix(0,1,1,0,0,0)" />
  <path
     style="fill:#bebebe"
     d="M 1 0 L 1 5 L 6 5 L 4.28125 3.28125 C 5.3038891 2.4783825 6.599253 2 8 2 C 11.313708 2 14 4.6862915 14 8 C 14 8.3380878 13.959989 8.677161 13.90625 9 L 15.9375 9 C 15.978667 8.6711678 16 8.3399903 16 8 C 16 3.581722 12.418278 0 8 0 C 6.0431279 0 4.2338051 0.6769384 2.84375 1.84375 L 1 0 z M 7.90625 2.96875 A 1.0001 1.0001 0 0 0 7.78125 3 A 1.0001 1.0001 0 0 0 7 4 L 7 7.6875 A 1.0001 1.0001 0 0 0 7 7.78125 A 1.0001 1.0001 0 0 0 7.125 8.53125 A 1.0001 1.0001 0 0 0 7.15625 8.5625 A 1.0001 1.0001 0 0 0 7.1875 8.625 A 1.0001 1.0001 0 0 0 7.21875 8.65625 A 1.0001 1.0001 0 0 0 7.25 8.6875 A 1.0001 1.0001 0 0 0 7.28125 8.71875 A 1.0001 1.0001 0 0 0 7.3125 8.75 A 1.0001 1.0001 0 0 0 7.375 8.78125 A 1.0001 1.0001 0 0 0 7.40625 8.8125 A 1.0001 1.0001 0 0 0 7.4375 8.84375 A 1.0001 1.0001 0 0 0 7.5 8.875 A 1.0001 1.0001 0 0 0 7.625 8.9375 L 9 9.75 L 9 9 L 11.46875 9 A 1.0077822 1.0077822 0 0 0 11.09375 8.625 L 9 7.40625 L 9 4 A 1.0001 1.0001 0 0 0 7.90625 2.96875 z M 0.25 6 C 0.0862956 6.637743 0 7.31119 0 8 C 0 12.418278 3.5817219 16 8 16 C 8.3399903 16 8.6711678 15.978667 9 15.9375 L 9 13.90625 C 8.6771611 13.959989 8.3380878 14 8 14 C 4.6862914 14 2 11.313708 2 8 C 2 7.299289 2.1229842 6.625135 2.34375 6 L 0.25 6 z "
     id="path3862" />
</svg>

<?xml version="1.0" encoding="UTF-8"?>
<svg version="1.1" viewBox="0 0 16 16" xmlns="http://www.w3.org/2000/svg" xmlns:cc="http://creativecommons.org/ns#" xmlns:dc="http://purl.org/dc/elements/1.1/" xmlns:rdf="http://www.w3.org/1999/02/22-rdf-syntax-ns#">
  <metadata>
    <rdf:RDF>
      <cc:Work rdf:about="">
        <dc:format>image/svg+xml</dc:format>
        <dc:type rdf:resource="http://purl.org/dc/dcmitype/StillImage"/>
        <dc:title/>
      </cc:Work>
    </rdf:RDF>
  </metadata>
  <rect x="12" y="10" width="2" height="6" fill="#bebebe"/>
  <rect transform="matrix(0,1,1,0,0,0)" x="12" y="10" width="2" height="6" fill="#bebebe"/>
  <path d="m1 0v5h5l-1.7188-1.7188c1.0226-0.80287 2.318-1.2812 3.7188-1.2812 3.3137 0 6 2.6863 6 6 0 0.33809-0.040011 0.67716-0.09375 1h2.0312c0.041167-0.32883 0.0625-0.66001 0.0625-1 0-4.4183-3.5817-8-8-8-1.9569 0-3.7662 0.67694-5.1562 1.8438l-1.8438-1.8438zm6.9062 2.9688a1.0001 1.0001 0 0 0-0.125 0.03125 1.0001 1.0001 0 0 0-0.78125 1v3.6875a1.0001 1.0001 0 0 0 0 0.09375 1.0001 1.0001 0 0 0 0.125 0.75 1.0001 1.0001 0 0 0 0.03125 0.03125 1.0001 1.0001 0 0 0 0.03125 0.0625 1.0001 1.0001 0 0 0 0.03125 0.03125 1.0001 1.0001 0 0 0 0.03125 0.03125 1.0001 1.0001 0 0 0 0.03125 0.03125 1.0001 1.0001 0 0 0 0.03125 0.03125 1.0001 1.0001 0 0 0 0.0625 0.03125 1.0001 1.0001 0 0 0 0.03125 0.03125 1.0001 1.0001 0 0 0 0.03125 0.03125 1.0001 1.0001 0 0 0 0.0625 0.03125 1.0001 1.0001 0 0 0 0.125 0.0625l1.375 0.8125v-0.75h2.4688a1.0078 1.0078 0 0 0-0.375-0.375l-2.0938-1.2188v-3.4062a1.0001 1.0001 0 0 0-1.0938-1.0312zm-7.6562 3.0312c-0.1637 0.63774-0.25 1.3112-0.25 2 0 4.4183 3.5817 8 8 8 0.33999 0 0.67117-0.021333 1-0.0625v-2.0312c-0.32284 0.053739-0.66191 0.09375-1 0.09375-3.3137 0-6-2.6863-6-6 0-0.70071 0.12298-1.3749 0.34375-2h-2.0938z" fill="#bebebe"/>
</svg>
